public/libraries/nextend2/smartslider/media/plugins/widgetfullscreen/image/image/tofull/full1.svg

<?xml version="1.0" encoding="UTF-8" standalone="no"?>
<svg width="16px" height="16px" viewBox="0 0 16 16" version="1.1" xmlns="http://www.w3.org/2000/svg" xmlns:xlink="http://www.w3.org/1999/xlink" xmlns:sketch="http://www.bohemiancoding.com/sketch/ns">
    <!-- Generator: Sketch 3.2.2 (9983) - http://www.bohemiancoding.com/sketch -->
    <title>Slice 1</title>
    <desc>Created with Sketch.</desc>
    <defs></defs>
    <g id="Page-1" stroke="none" stroke-width="1" fill="none" fill-rule="evenodd" sketch:type="MSPage">
        <path d="M13,14 L13,13 C13,12.9925976 14.9973369,12.9925976 15,13 C14.9973369,12.9925976 14.9973369,11 15,11 C14.9973369,11 16,11 16,11 L16,14 L13,14 L13,14 Z M15,3 C14.9973369,3.01176866 13,3.01176866 13,3 C13,3.01176866 13,2 13,2 L16,2 L16,5 L15,5 C14.9973369,5 14.9973369,3.01176866 15,3 L15,3 L15,3 Z M1,5 L0,5 L0,2 L3,2 L3,3 C3,3.01176866 0.99866844,3.01176866 1,3 C0.99866844,3.01176866 0.99866844,5 1,5 L1,5 L1,5 Z M2,4 L14,4 L14,12 L2,12 L2,4 L2,4 Z M1,13 C0.99866844,12.9956258 2.99600533,12.9956258 3,13 C2.99600533,12.9956258 3,14 3,14 L0,14 L0,11 L1,11 C0.99866844,11 0.99866844,12.9956258 1,13 L1,13 L1,13 Z" id="path-1" fill="#FFFFFF" sketch:type="MSShapeGroup"></path>
    </g>
</svg>

<svg width="16" height="16" viewBox="0 0 16 16" xmlns="http://www.w3.org/2000/svg"><path d="M13 14v-1c0-.007 1.997-.007 2 0-.003-.007-.003-2 0-2h1v3h-3zm2-11c-.003.012-2 .012-2 0V2h3v3h-1c-.003 0-.003-1.988 0-2zM1 5H0V2h3v1c0 .012-2 .012-2 0v2zm1-1h12v8H2V4zm-1 9c0-.004 1.996-.004 2 0-.004-.004 0 1 0 1H0v-3h1v2z" fill="#FFF" opacity="1" fill-rule="evenodd"/></svg>
